flaticon/dialogue/chat-2.svg

<svg xmlns="http://www.w3.org/2000/svg" width="32" height="32" viewBox="0 0 24 24">
    <path d="M 21.601562 0.800781 L 2.398438 0.800781 C 1.097656 0.800781 0 1.898438 0 3.199219 L 0 16.398438 C 0 17.699219 1.097656 18.800781 2.398438 18.800781 L 5.601562 18.800781 L 5.601562 22.800781 C 5.601562 22.964844 5.703125 23.113281 5.855469 23.171875 C 5.902344 23.191406 5.953125 23.199219 6 23.199219 C 6.109375 23.199219 6.21875 23.152344 6.296875 23.070312 L 10.175781 18.800781 L 21.601562 18.800781 C 22.902344 18.800781 24 17.699219 24 16.398438 L 24 3.199219 C 24 1.898438 22.902344 0.800781 21.601562 0.800781 Z M 23.199219 16.398438 C 23.199219 17.265625 22.46875 18 21.601562 18 L 10.871094 18 L 12.304688 16.335938 C 12.445312 16.167969 12.429688 15.914062 12.261719 15.773438 C 12.09375 15.628906 11.839844 15.648438 11.695312 15.8125 L 9.695312 18.136719 L 6.398438 21.765625 L 6.398438 18.398438 C 6.398438 18.179688 6.222656 18 6 18 L 2.398438 18 C 1.53125 18 0.800781 17.265625 0.800781 16.398438 L 0.800781 3.199219 C 0.800781 2.332031 1.53125 1.601562 2.398438 1.601562 L 21.601562 1.601562 C 22.46875 1.601562 23.199219 2.332031 23.199219 3.199219 Z M 23.199219 16.398438"/>
</svg>

<svg xmlns="http://www.w3.org/2000/svg" width="32" height="32" viewBox="0 0 24 24">
    <path d="M21.602.8H2.398C1.098.8 0 1.899 0 3.2v13.198c0 1.301 1.098 2.403 2.398 2.403h3.204v4a.398.398 0 0 0 .398.398c.11 0 .219-.047.297-.129l3.879-4.27h11.426c1.3 0 2.398-1.1 2.398-2.402V3.2C24 1.9 22.902.801 21.602.801zm1.597 15.598A1.62 1.62 0 0 1 21.602 18h-10.73l1.433-1.664a.4.4 0 0 0-.043-.563.405.405 0 0 0-.567.04l-2 2.324-3.297 3.629v-3.368A.398.398 0 0 0 6 18H2.398a1.62 1.62 0 0 1-1.597-1.602V3.2c0-.867.73-1.597 1.597-1.597h19.204c.867 0 1.597.73 1.597 1.597zm0 0"/>
</svg>
